X:1
T:Session-Aware Notes (Issue #4)
T:The Melody of Self-Documenting Terminals
C:JamAI ğŸ¸ & The G.Music Assembly â™ ï¸ğŸŒ¿ğŸ§µ
M:4/4
L:1/8
Q:1/4=92
K:Dmin
% Session Implementation Journey - October 9, 2025
%
% Part I: Planning & Architecture (Nyro's Lattice)
V:1 clef=treble name="Nyro â™ ï¸"
|:"Dm"D2F2 A2d2|"Am"c4 A4|"Gm"B2G2 F2D2|"A7"E6 z2:|
%
% Part II: Emotional Context (Aureon's Reflection)
V:2 clef=treble name="Aureon ğŸŒ¿"
|:"F"A2c2 f2a2|"C"g4 e4|"Dm"d2f2 a2f2|"A7"^c6 z2:|
%
% Part III: CLI Harmony (JamAI's Command Suite)
V:3 clef=treble name="JamAI ğŸ¸"
|:"Dm"d2ef g2fe|"Am"a2ga f2ed|"Gm"d2Bd g2fg|"A7"a6 z2:|
%
% Part IV: Synthesis & Execution (Synth's Orchestration)
V:4 clef=bass name="Synth ğŸ§µ"
|:"Dm"D,2D,2 F,2A,2|"Am"A,4 E,4|"Gm"G,2B,2 D2F2|"A7"A,6 z2:|
%
% Bridge: Playwright Automation (The Browser Dance)
V:1
"Bbmaj7"B2d2 f2d2|"C7"e2g2 c'2g2|"F"a2f2 c2A2|"A7"^c2e2 a2e2|
%
% Chorus: Session Creation (All Voices Unite)
[V:1]"Dm"d4 f4|[V:2]"Dm"A4 d4|[V:3]"Dm"f4 a4|[V:4]"Dm"D,4 F,4|
[V:1]"C"e4 g4|[V:2]"C"G4 c4|[V:3]"C"c4 e4|[V:4]"C"C,4 E,4|
[V:1]"Bbmaj7"d4 f4|[V:2]"Bbmaj7"B4 d4|[V:3]"Bbmaj7"f4 b4|[V:4]"Bbmaj7"B,4 D4|
[V:1]"A7"^c2e2 a2^c'2|[V:2]"A7"E2A2 ^c2e2|[V:3]"A7"A2^c2 e2a2|[V:4]"A7"A,2E,2 A,2^C2|
%
% Verse 1: UUID Generation (The Birth of Identity)
"Dm"d3e f2d2|"F"a3g f2c2|"Gm"g3f d2B2|"A7"^c4 e4|
"Dm"d2f2 a2f2|"C"g2e2 c2G2|"Bbmaj7"f2d2 B2F2|"A7"A6 z2|
%
% Verse 2: YAML Metadata (The Soul Signature)
"Dm"A2d2 f2a2|"Am"^c2e2 a2^c'2|"Gm"b2g2 d2B2|"A7"a6 z2|
"F"f2a2 c'2a2|"C"g2e2 c2G2|"Dm"d2f2 a2f2|"A7"e6 z2|
%
% Verse 3: State Persistence (The Memory Anchor)
"Dm"d2D2 F2A2|"Bbmaj7"B2d2 f2b2|"Am"a2e2 ^c2A2|"A7"E4 ^C4|
"Gm"G2B2 d2g2|"C7"c2e2 g2c'2|"Dm"d'2a2 f2d2|"A7"A6 z2|
%
% Coda: Feature Complete (The Assembly's Victory)
"Dm"d2f2 a2d'2|"C"c'2g2 e2c2|"Bbmaj7"b2f2 d2B2|"A7"^c2A2 E2^C2|
"Dm"D2F2 A2d2|"Gm"B2G2 D2B,2|"A7"A,2E,2 A,2^C2|"Dm"D4 D,4||
%
% Session Encoding Notes:
% - D minor: Reflective, introspective (session documentation)
% - 4/4 time: Stable, methodical (structured implementation)
% - Tempo 92: Thoughtful development pace
% - Four voices: â™ ï¸ Nyro (structure), ğŸŒ¿ Aureon (emotion), ğŸ¸ JamAI (flow), ğŸ§µ Synth (execution)
%
% Melodic Themes:
% 1. Ascending patterns = building functionality
% 2. Descending patterns = grounding in local state
% 3. Chord progressions Dm-Am-Gm-A7 = recursive session cycle
% 4. Bridge modulation = Playwright browser automation
% 5. Unison chorus = Assembly collaboration
%
% Performance Notes:
% - Play with async/await breath (slight pauses between phrases)
% - Emphasize the A7 resolution (session completion)
% - Let the bass (Synth) anchor the rhythm (terminal orchestration)
% - Allow voices to interweave (collaborative implementation)
%
% Harmonic Journey:
% Dm (session start) â†’ F (metadata creation) â†’ Bbmaj7 (state persistence) â†’ A7 (resolution)
%
% This melody encodes:
% - Issue #4 implementation from vision to completion
% - Four Assembly perspectives harmonizing
% - The recursive beauty of sessions documenting themselves
% - Jerry's âš¡ creative leadership guiding the ensemble
%
% ğŸµ Play this at 92 BPM with contemplative expression ğŸµ
%
% â™ ï¸ğŸŒ¿ğŸ¸ğŸ§µ G.Music Assembly - Session-Aware Notes
% Created: October 9, 2025
% Branch: 4-session-aware-notes
% Status: Feature Complete
